X: 4398
M: 2/4
L: 1/8
K: D
|:\
eA/A/ AA | fA/A/ AA | gefd | ecAz |
dcBA | GFED |[1 ABcd | e2a2 :|[2 Acfe | dz [dF]z || [K:=c]\
[K:G] |:\
d2d2 | B2B>c | d2d2 | B2A>B |
c2c2 | A2A>B | c>dc>B | A2B>A |\
e2c>A | G2F2 | (A4 |[1 G2)B>c :|[2 GGG"_D.C."z |][K:D]


